icons/opbeat.svg

<?xml version="1.0" encoding="UTF-8" standalone="no"?>
<svg width="256px" height="241px" viewBox="0 0 256 241" version="1.1" xmlns="http://www.w3.org/2000/svg" xmlns:xlink="http://www.w3.org/1999/xlink" preserveAspectRatio="xMidYMid">
    <g>
        <path d="M226.006569,71.4797994 C217.12794,60.4519475 207.227022,52.5070644 197.334154,48.4581523 L181.814666,48.4581523 L182.056151,48.0315274 C184.068533,44.5138841 187.52983,38.4123427 187.586176,38.3318474 C192.472239,31.0067779 193.832609,24.9374345 191.61094,20.300907 C189.22023,15.2860517 182.337885,11.5430217 174.489596,10.9634557 L25.6135948,0.0965943236 C24.792543,0.0241485809 24.0036894,4.54747351e-13 23.2631329,4.54747351e-13 C13.9256816,4.54747351e-13 10.8668614,4.68482469 9.86067053,7.48606008 C8.02537838,12.6136088 10.2792459,18.0631385 16.421035,23.2631329 C16.5015303,23.3436282 23.5046187,29.9281412 30.0730327,36.7863382 C33.1640511,39.8773566 35.6272063,43.8216248 37.3981023,48.5064495 L37.6395881,64.1225318 L188.729209,63.897145 C188.729209,63.897145 200.360776,68.968347 211.831352,83.2160097 C228.051148,103.355926 242.781783,140.102017 236.076527,183.327977 L254.558241,183.327977 C261.118605,135.191805 244.19045,94.0587226 226.014618,71.4717499 L226.006569,71.4797994 Z M55.3002502,45.1900444 L54.8414272,44.022863 C54.3101584,42.8959292 53.6822953,41.7126487 52.9497884,40.448873 C52.5634111,39.7646632 52.2253309,39.2253449 52.0079937,38.8550667 L51.6377155,38.2755007 C47.7739425,32.1578602 42.6463939,26.0402197 38.2433026,22.3052392 L30.1454785,15.4228937 L173.451207,25.8872787 C174.529844,25.967774 175.262351,26.1690122 175.680926,26.3219532 L176.848107,26.7244295 L176.445631,27.90771 C176.204145,28.5516721 175.866065,29.2278324 175.383093,29.9361908 L174.393002,31.4173037 C171.768856,35.3454729 166.906942,44.8600138 165.079699,48.4662018 L56.5559764,48.4984 C56.1937477,47.4117138 55.7832219,46.3250277 55.2922007,45.1739453 L55.3002502,45.1900444 Z M182.201043,74.6996102 L179.705689,72.405495 L38.1950054,72.4859903 L35.6996521,74.7801055 C13.0080356,95.7088756 0,125.532373 0,156.611597 C0,187.747167 13.0402337,217.602862 35.7962464,238.531633 L38.2915998,240.833797 L179.802284,240.753302 L182.297637,238.443088 C204.997303,217.514318 218.005339,187.69887 218.005339,156.603547 C218.005339,125.476026 204.965105,95.6203308 182.209092,74.6996102 L182.201043,74.6996102 Z M161.739145,201.431363 L139.095826,201.431363 C135.570133,201.431363 132.680353,198.654276 132.680353,195.257376 C132.680353,191.876574 135.578183,189.091438 139.087776,189.091438 L161.706947,189.091438 C165.248739,189.091438 168.12242,191.868525 168.12242,195.257376 C168.12242,198.654276 165.24069,201.431363 161.714997,201.431363 L161.739145,201.431363 Z M161.739145,176.075353 L139.095826,176.075353 C135.570133,176.075353 132.680353,173.282167 132.680353,169.893316 C132.680353,166.496416 135.578183,163.719329 139.087776,163.719329 L161.706947,163.719329 C165.248739,163.719329 168.12242,166.496416 168.12242,169.893316 C168.12242,173.274117 165.24069,176.067303 161.714997,176.067303 L161.739145,176.075353 Z M161.739145,150.799838 L139.095826,150.799838 C135.570133,150.799838 132.680353,148.022751 132.680353,144.625851 C132.680353,141.228951 135.578183,138.451864 139.087776,138.451864 L161.706947,138.451864 C165.248739,138.451864 168.12242,141.220901 168.12242,144.617801 C168.12242,148.014702 165.24069,150.791789 161.714997,150.791789 L161.739145,150.799838 Z M161.739145,113.087804 L139.095826,113.087804 C135.570133,113.087804 132.680353,115.856842 132.680353,119.253742 C132.680353,122.650642 135.578183,125.435779 139.087776,125.435779 L161.706947,125.435779 C165.248739,125.435779 168.12242,122.650642 168.12242,119.253742 C168.12242,115.856842 165.24069,113.087804 161.714997,113.087804 L161.739145,113.087804 Z M91.2252891,125.435779 C56.2661935,112.451892 38.1145102,108.620317 31.3931552,107.525581 C35.2327795,101.271099 39.8049108,95.4512907 45.077351,90.2190982 L172.871641,90.154702 C180.518692,97.7373564 186.757075,106.575737 191.345305,116.194922 C179.077826,125.773859 145.173219,145.446903 91.2252891,125.427729 L91.2252891,125.435779 Z" fill="#3360A3"></path>
    </g>
</svg>

<svg xmlns="http://www.w3.org/2000/svg" viewBox="0 0 256 240.834">
  <path fill="#3360a3" d="M226.007 71.48c-8.88-11.028-18.78-18.973-28.673-23.022h-15.52l.242-.426c2.013-3.518 5.474-9.62 5.53-9.7 4.886-7.325 6.247-13.395 4.025-18.031-2.39-5.015-9.273-8.758-17.121-9.338L25.614.097A26.698 26.698 0 0 0 23.264 0C13.925 0 10.866 4.685 9.86 7.486c-1.836 5.128.418 10.577 6.56 15.777.08.08 7.084 6.665 13.652 13.523 3.091 3.091 5.554 7.036 7.325 11.72l.242 15.617 151.09-.226s11.63 5.071 23.101 19.319c16.22 20.14 30.95 56.886 24.246 100.112h18.481c6.56-48.136-10.368-89.27-28.543-111.856zM55.3 45.19l-.459-1.167a47.821 47.821 0 0 0-1.891-3.574c-.387-.684-.725-1.224-.942-1.594l-.37-.58c-3.864-6.117-8.992-12.235-13.395-15.97l-8.098-6.882 143.306 10.464c1.079.08 1.811.282 2.23.435l1.167.402-.402 1.184a9.504 9.504 0 0 1-1.063 2.028l-.99 1.481c-2.624 3.928-7.486 13.443-9.313 17.05l-108.524.031a43.24 43.24 0 0 0-1.264-3.324zM182.201 74.7l-2.495-2.295-141.511.081L35.7 74.78C13.008 95.71 0 125.532 0 156.612c0 31.135 13.04 60.99 35.796 81.92l2.496 2.302 141.51-.08 2.496-2.31c22.7-20.93 35.707-50.745 35.707-81.84 0-31.128-13.04-60.984-35.796-81.904zM161.739 201.43h-22.643c-3.526 0-6.416-2.777-6.416-6.174 0-3.38 2.898-6.166 6.408-6.166h22.619c3.542 0 6.415 2.778 6.415 6.166 0 3.397-2.881 6.174-6.407 6.174zm0-25.356h-22.643c-3.526 0-6.416-2.793-6.416-6.182 0-3.397 2.898-6.174 6.408-6.174h22.619c3.542 0 6.415 2.777 6.415 6.174 0 3.381-2.881 6.174-6.407 6.174zm0-25.275h-22.643c-3.526 0-6.416-2.777-6.416-6.174 0-3.397 2.898-6.174 6.408-6.174h22.619c3.542 0 6.415 2.769 6.415 6.166 0 3.397-2.881 6.174-6.407 6.174zm0-37.712h-22.643c-3.526 0-6.416 2.769-6.416 6.166 0 3.397 2.898 6.182 6.408 6.182h22.619c3.542 0 6.415-2.785 6.415-6.182 0-3.397-2.881-6.166-6.407-6.166zm-70.514 12.348c-34.959-12.984-53.11-16.816-59.832-17.91a92.626 92.626 0 0 1 13.684-17.307l127.795-.064a93.195 93.195 0 0 1 18.473 26.04c-12.267 9.579-46.172 29.252-100.12 9.233z"/>
</svg>
